src/objects/medical/1FA7A.svg

<svg id="emoji" viewBox="0 0 72 72" xmlns="http://www.w3.org/2000/svg">
  <g id="grid">
    <path fill="#b3b3b3" d="M68,4V68H4V4H68m4-4H0V72H72V0Z"/>
    <path fill="none" stroke="#00a5ff" stroke-miterlimit="10" stroke-width="0.1" d="M12.923,10.9583H59.0769A1.9231,1.9231,0,0,1,61,12.8814V59.0352a1.9231,1.9231,0,0,1-1.9231,1.9231H12.9231A1.9231,1.9231,0,0,1,11,59.0352V12.8813A1.923,1.923,0,0,1,12.923,10.9583Z"/>
    <rect x="16" y="4" rx="2.2537" ry="2.2537" width="40" height="64" fill="none" stroke="#00a5ff" stroke-miterlimit="10" stroke-width="0.1"/>
    <rect x="16" y="4" rx="2.2537" ry="2.2537" width="40" height="64" transform="translate(72) rotate(90)" fill="none" stroke="#00a5ff" stroke-miterlimit="10" stroke-width="0.1"/>
    <circle cx="36" cy="36" r="29" fill="none" stroke="#00a5ff" stroke-miterlimit="10" stroke-width="0.1"/>
  </g>
  <g id="color">
    <circle cx="49.5" cy="51.5" r="3" fill="#d0cfce"/>
    <circle cx="49.5" cy="51.5" r="1.5" fill="#9b9b9a"/>
    <path fill="none" stroke="#9b9b9a" stroke-linecap="round" stroke-linejoin="round" stroke-width="2" d="M30.1,13c-.5762.49-2.0521.6519-1.4611,5.4565C29.1438,22.56,33,38.5,36.5,38.5s7.1635-16.9587,7.86-20.0574c.58-2.5826.13-3.095-1.36-4.9426"/>
  </g>
  <g id="line">
    <path stroke="#000" stroke-linecap="round" stroke-miterlimit="10" d="M41.2027,9.9048c1.1555.6671,1.883,1.0871,1.279,2.1332s-1.3314.6261-2.4869-.041-2.0923-1.208-1.4883-2.2541S40.0472,9.2376,41.2027,9.9048Z"/>
    <path fill="none" stroke="#000" stroke-linecap="round" stroke-miterlimit="10" stroke-width="2" d="M31.5,11.5c-2,1-5,2-3.8611,6.9565C28.5971,22.6263,31.1823,39.5,36.5,39.5c5.2511,0,8-18,8.86-21.0574C46.2141,15.4047,43.5,12.5,41.5,11.5"/>
    <path fill="none" stroke="#000" stroke-miterlimit="10" stroke-width="2" d="M47.5,49.5c-5-6-5,8-10,12-11.713,9.37-21-9-7-11,5.94-.8485,6-11,6-11"/>
    <circle cx="49.5" cy="51.5" r="3" fill="none" stroke="#000" stroke-miterlimit="10"/>
    <path stroke="#000" stroke-linecap="round" stroke-miterlimit="10" d="M32.3312,9.967c1.11-.4041,1.8091-.6585,2.1749.3466s-.3331,1.26-1.4433,1.6635-2.01.7317-2.376-.2734S31.221,10.371,32.3312,9.967Z"/>
  </g>
</svg>

<svg viewBox="0 0 72 72" xmlns="http://www.w3.org/2000/svg"><path fill="#b3b3b3" d="M68 4v64H4V4h64m4-4H0v72h72V0z"/><path fill="none" stroke="#00a5ff" stroke-miterlimit="10" stroke-width=".1" d="M12.923 10.958h46.154A1.923 1.923 0 0161 12.881v46.154a1.923 1.923 0 01-1.923 1.923H12.923A1.923 1.923 0 0111 59.035V12.881a1.923 1.923 0 011.923-1.923z"/><rect x="16" y="4" rx="2.254" ry="2.254" width="40" height="64" fill="none" stroke="#00a5ff" stroke-miterlimit="10" stroke-width=".1"/><rect x="16" y="4" rx="2.254" ry="2.254" width="40" height="64" transform="rotate(90 36 36)" fill="none" stroke="#00a5ff" stroke-miterlimit="10" stroke-width=".1"/><circle cx="36" cy="36" r="29" fill="none" stroke="#00a5ff" stroke-miterlimit="10" stroke-width=".1"/><g stroke-linecap="round" stroke-miterlimit="10" stroke-width="6" stroke="#fff" fill="none" stroke-linejoin="round"><path d="M41.203 9.905c1.155.667 1.883 1.087 1.279 2.133s-1.332.626-2.487-.041-2.092-1.208-1.488-2.254 1.54-.505 2.696.162z"/><path d="M31.5 11.5c-2 1-5 2-3.861 6.957.958 4.17 3.543 21.043 8.861 21.043 5.251 0 8-18 8.86-21.057.854-3.038-1.86-5.943-3.86-6.943m6 38c-5-6-5 8-10 12-11.713 9.37-21-9-7-11 5.94-.849 6-11 6-11"/><circle cx="49.5" cy="51.5" r="3"/><path d="M32.331 9.967c1.11-.404 1.81-.658 2.175.347s-.333 1.26-1.443 1.663-2.01.732-2.376-.273.534-1.333 1.644-1.737z"/></g><circle cx="49.5" cy="51.5" r="3" fill="#d0cfce"/><circle cx="49.5" cy="51.5" r="1.5" fill="#9b9b9a"/><path fill="none" stroke="#9b9b9a" stroke-linecap="round" stroke-linejoin="round" stroke-width="2" d="M30.1 13c-.576.49-2.052.652-1.461 5.457C29.144 22.56 33 38.5 36.5 38.5s7.163-16.959 7.86-20.057c.58-2.583.13-3.095-1.36-4.943"/><g stroke="#000" stroke-miterlimit="10"><path stroke-linecap="round" d="M41.203 9.905c1.155.667 1.883 1.087 1.279 2.133s-1.332.626-2.487-.041-2.092-1.208-1.488-2.254 1.54-.505 2.696.162z"/><path fill="none" stroke-linecap="round" stroke-width="2" d="M31.5 11.5c-2 1-5 2-3.861 6.957.958 4.17 3.543 21.043 8.861 21.043 5.251 0 8-18 8.86-21.057.854-3.038-1.86-5.943-3.86-6.943"/><path fill="none" stroke-width="2" d="M47.5 49.5c-5-6-5 8-10 12-11.713 9.37-21-9-7-11 5.94-.849 6-11 6-11"/><circle cx="49.5" cy="51.5" r="3" fill="none"/><path stroke-linecap="round" d="M32.331 9.967c1.11-.404 1.81-.658 2.175.347s-.333 1.26-1.443 1.663-2.01.732-2.376-.273.534-1.333 1.644-1.737z"/></g></svg>
